dist/img/svg/watch_icon.svg

<svg xmlns="http://www.w3.org/2000/svg" viewBox="0 0 232.86 312.82"><style>.st0{fill:#000}</style><path class="st0" d="M148.49 179.28l-25.57-25.56V99.94h-12.99v59.15l29.37 29.38z"/><path class="st0" d="M171.32 299.83H61.54l-12-47.96 7.25 4.34c18.13 10.88 38.75 16.63 59.64 16.63s41.51-5.75 59.64-16.63l7.24-4.34zM12.98 156.4c0-57.03 46.41-103.44 103.45-103.44 57.04 0 103.44 46.41 103.44 103.44 0 57.04-46.4 103.45-103.44 103.45S12.98 213.44 12.98 156.4M61.54 12.98h109.78l11.99 47.96-7.24-4.34c-18.13-10.88-38.75-16.63-59.64-16.63S74.92 45.72 56.79 56.6l-7.25 4.34zm138.93 223.76l.63-.67c20.48-21.75 31.76-50.05 31.76-79.67 0-29.62-11.28-57.91-31.76-79.66l-.63-.67-.12-.51-17.66-70.64a6.474 6.474 0 00-6.3-4.92H56.46c-2.98 0-5.57 2.02-6.29 4.92L32.38 76.07l-.62.66C11.27 98.49 0 126.78 0 156.4c0 29.63 11.27 57.92 31.76 79.67l.62.67 17.79 71.15c.72 2.9 3.31 4.92 6.29 4.92h119.93c2.99 0 5.58-2.02 6.3-4.92z"/></svg>

<svg xmlns="http://www.w3.org/2000/svg" viewBox="0 0 232.86 312.82">
	<style type="text/css">
		.st0{fill:#000000;}
	</style>
	<path class="st0" d="M148.49,179.28L122.92,153.72L122.92,99.94L109.93,99.94L109.93,159.09L139.3,188.47Z"/>
	<path class="st0" d="M171.32,299.83L61.54,299.83L49.54,251.87L56.79,256.21C74.92,267.09 95.54,272.84 116.43,272.84C137.32,272.84 157.94,267.09 176.07,256.21L183.31,251.87ZM12.98,156.4C12.98,99.37 59.39,52.96 116.43,52.96C173.47,52.96 219.87,99.37 219.87,156.4C219.87,213.44 173.47,259.85 116.43,259.85C59.39,259.85 12.98,213.44 12.98,156.4M61.54,12.98L171.32,12.98L183.31,60.94L176.07,56.6C157.94,45.72 137.32,39.97 116.43,39.97C95.54,39.97 74.92,45.72 56.79,56.6L49.54,60.94ZM200.47,236.74L201.1,236.07C221.58,214.32 232.86,186.02 232.86,156.4C232.86,126.78 221.58,98.49 201.1,76.74L200.47,76.07L200.35,75.56L182.69,4.92C181.97,2.02 179.38,0 176.39,0L56.46,0C53.48,0 50.89,2.02 50.17,4.92L32.38,76.07L31.76,76.73C11.27,98.49 0,126.78 0,156.4C0,186.03 11.27,214.32 31.76,236.07L32.38,236.74L50.17,307.89C50.89,310.79 53.48,312.81 56.46,312.81L176.39,312.81C179.38,312.81 181.97,310.79 182.69,307.89Z"/>
</svg>
